X: 20563
T: MY LONG TAIL BLUE
C:
%R: march, reel
B: Elias Howe "The Musician's Companion" 1843 p.56 #3
S: http://imslp.org/wiki/The_Musician's_Companion_(Howe,_Elias)
Z: 2015 John Chambers <jc:trillian.mit.edu>
N: Added pickup rest to 2nd strain to fix the rhythm.
M: 2/4
L: 1/16
K: D
% - - - - - - - - - - - - - - - - - - - - - - - - -
de |\
{de}f2d2{ef}g2e2 | {de}f2d2{ef}g2e2 | f2d2 e2e2 | A2^GA Bcde |\
{de}f2d2{ef}g2e2 | {de}f2d2{ef}g2e2 | A2Ac Bdce | d4 z2 :|
|: z2 |\
a2fg a2a2 | "^>"e6 z2 | a2fg a2a2 | "^>"d6 z2 |\
{de}f2d2{ef}g2e2 | {de}f2d2{ef}g2[e2A2] | A2Ac Bdce | d4 z2 :|
% - - - - - - - - - - - - - - - - - - - - - - - - -

%%sep 1 1 500

